!!!!SEGMENT: pl-kk--kk-i-6--037-001_palestrina-giovanni-pierluigi-da--missa-inviolata-kyrie.krn
!!!cenid: 16xx:1016
!!!COM: Palestrina, Giovanni Pierluigi da
!!!COM-rismid: pe1904
!!!CDT: ~1525-1594/02/02
!!!CNT: Italian
!!!OPR: Missa Inviolata
!!!OTL: Kyrie
!!!OMV: 001
!!!PDT:
!!!AGN: Sacred; Mass
!!!SMS-siglum: PL-Kk
!!!SMS-shelfmark: Kk.I.6
!!!SMS-shelfwork: 037-001 M
!!!SMS-variant:
!!!SMS-altvar:
!!!NIFC-rismid: 1001136448
!!!URL-scan: http://repozytorium.nifc.pl/skany/pl-kk-nut--i-6
!!!ONB-nifc: UWAGA: C (skan 0046-0051, s. 88-99), T (skan 0158-0163, s. 120-131), B (skan 0269-0272, s. 121-126) Części Mszy: 1. Kyrie, 2. Et in terra, 3. Patrem, 4. Sanctus, 5. Agnus Dei
**kern	**text	**kern	**text	**kern	**text
*part3	*part3	*part2	*part2	*part1	*part1
*staff3	*staff3	*staff2	*staff2	*staff1	*staff1
*I"Baſsus.	*	*I"Tenor.	*	*I"Cantus.	*
*I'B	*	*I'T	*	*I'S	*
*clefF4	*	*clefC4	*	*clefC1	*
*k[b-]	*	*k[b-]	*	*k[b-]	*
*F:	*	*F:	*	*F:	*
*M2/1	*	*M2/1	*	*M2/1	*
*met(c|)	*	*met(c|)	*	*met(c|)	*
=1	=1	=1	=1	=1	=1
!LO:TX:i:t=Miſsa Inuiolata Preaeneſtini.	!	!LO:TX:t=Miſsa Inuiolata	!	!LO:TX:i:t=Miſsa Inuiolata Preaeneſtini.	!
!	!	!LO:TX:i:t=aloysÿ Praenestini	!	!	!
00r	.	1F/	Ky-	00r	.
.	.	2F/	-ri-	.	.
.	.	2F/	-e	.	.
=2-	=2-	=2-	=2-	=2-	=2-
.	.	1G/	e-	.	.
.	.	1A\	.	.	.
=3-	=3-	=3-	=3-	=3-	=3-
00r	.	1B-\	.	1f/	Ky-
.	.	2A/	.	2f/	-ri
.	.	1B-\	.	2f/	-e
=4-	=4-	=4-	=4-	=4-	=4-
.	.	.	.	1g\	e-
.	.	4A/	-lei-	.	.
.	.	4G/	.	.	.
.	.	2F/	-son	1a\	-lei-
.	.	2A/	e-	.	.
=5-	=5-	=5-	=5-	=5-	=5-
0rD	.	4G/	-lei-	1b-\	-son
.	.	4A/	.	.	.
.	.	4B-\	.	.	.
.	.	4c\	.	.	.
!	!	!	!	!LO:TX:t=P:problem:2\right:global	!
*	*	*	*	*2\right	*
.	.	1d\	.	2a\	.
.	.	.	.	1b-\	.
=6-	=6-	=6-	=6-	=6-	=6-
*	*	*2\right	*	*	*
!	!	!LO:SIC:v:t=custos “c” na końcu linijki	!	!	!
1rD	.	2B-\	-son	.	.
!	!	!LO:PB:g=original	!	!	!
.	.	2c\	e-	4a\	.
.	.	.	.	4g/	.
1BB-/	Kÿ-	4d\	-lei-	2f/	.
.	.	4c\	.	.	.
.	.	4B-\	.	1g\	.
.	.	4A\	.	.	.
=7-	=7-	=7-	=7-	=7-	=7-
2BB-/	-ri-	1B-\	.	.	.
2BB-/	-e	.	.	1f/	.
!LO:TX:t=P:problem:kreska pseudotaktowa	!	!	!	!	!
1C/	e-	1G/	.	.	.
.	.	.	.	2e/	.
=8-	=8-	=8-	=8-	=8-	=8-
1D\	.	1F/	-son	1f/	.
1E-X\	-lei-	2r	.	0rg	.
.	.	2G/	e-	.	.
=9-	=9-	=9-	=9-	=9-	=9-
2D/	.	2F/	-lei-	.	.
1E-\	.	1G/	-son	.	.
.	.	.	.	1rg	.
4D/	.	2A/	ky-	.	.
4C/	.	.	.	.	.
=10-	=10-	=10-	=10-	=10-	=10-
1BB-/	.	1B-\	-ri-	1f/	Ky-
!	!	!	!	!LO:LB:g=original	!
1D\	-ſon.	2A/	-e	2f/	-ri-
.	.	2F/	e-	2f/	-e
=11-	=11-	=11-	=11-	=11-	=11-
!LO:TX:t=P:problem:kreska pseudotaktowa	!	!	!	!	!
1C/	.	1c\	-lei-	1g\	e-
1r	.	1F/	-son	1a\	-le-
=12-	=12-	=12-	=12-	=12-	=12-
1G\	Kÿ-	2r	.	1b-\	-i-
.	.	2G/	e-	.	.
*2\right	*	*	*	*	*
2F\	-ri-	2A/	.	2a\	.
1G\	-e	2G/	.	1b-\	-son
=13-	=13-	=13-	=13-	=13-	=13-
.	.	2B-\	.	.	.
*	*	*	*	*	*ij
4F\	.	2c\	.	4a\	Ky-
!LO:SIC:v:t=custos “D” na końcu linijki	!	!	!	!	!
4Eny\	.	.	.	4g/	.
!LO:LB:g=original	!	!LO:LB:g=original	!	!	!
1D\	.	1d\	-lei-	1f/	.
=14-	=14-	=14-	=14-	=14-	=14-
!LO:TX:t=P:problem:kreska pseudotaktowa	!	!	!	!	!
1F\	e-	1c\	-son	1a\	.
2E\	.	1r	.	2g/	-ri-
1F\	.	.	.	1a\	-e
=15-	=15-	=15-	=15-	=15-	=15-
.	.	1F/	ky-	.	.
4E\	.	.	.	4g/	.
!LO:TX:t=P:problem:kreska pseudotaktowa	!	!	!	!	!
4D/	.	.	.	4f/	.
1C/	.	2G/	-ri-	1e/	.
.	.	1A\	-e	.	.
=16-	=16-	=16-	=16-	=16-	=16-
1D\	.	.	.	1f/	e-
.	.	4G/	e-	.	.
.	.	4F/	.	.	.
2C/	.	2G/	.	2e/	.
1D\	.	2F/	-lei-	1f/	.
=17-	=17-	=17-	=17-	=17-	=17-
.	.	2A/	-son	.	.
4C/	.	1c\	ky-	4e/	e-
!LO:TX:t=P:problem:kreska pseudotaktowa	!	!	!	!	!
4BB-/	.	.	.	4d/	.
1AA/	.	.	.	2c/	.
.	.	2c\	-ri-	2e/	.
=18-	=18-	=18-	=18-	=18-	=18-
*lig	*	*	*	*	*
!	!	!	!	!LO:SIC:v:t=custos “f” na końcu linijki	!
1BB-/	-lei-	2.B-\	-e	2g/	-le-
!	!	!	!	!LO:PB:g=original	!
.	.	.	.	1f/	.
.	.	4A/	e-	.	.
1C/	.	1G/	-lei-	.	.
.	.	.	.	2e/	-i-
*Xlig	*	*	*	*	*
=19-	=19-	=19-	=19-	=19-	=19-
2FF,</	-ſon	1F/	-son	0.f/	-son
*	*	*	*	*	*Xij
!LO:TX:t=P:problem:kreska pseudotaktowa	!	!	!	!	!
2F\	Kÿ-	.	.	.	.
2D/	-ri-	2r	.	.	.
2BB-/	-e	2B-\	e-	.	.
=20-	=20-	=20-	=20-	=20-	=20-
2F\	e-	2A/	.	.	.
2BB-/	-lei-	1B-\	.	.	.
!LO:TX:t=P:problem:kreska pseudotaktowa	!	!	!	!	!
1BB-/	-ſon-	.	.	1rg	.
.	.	4A/	.	.	.
.	.	4G/	.	.	.
=21-	=21-	=21-	=21-	=21-	=21-
2r	.	1F/	.	1a\	Ky-
!LO:SIC:v:t=custos “E” na końcu linijki	!	!	!	!	!
2F\	Kÿ-	.	.	.	.
!LO:LB:g=original	!	!	!	!	!
2E\	-ri-	2G/	.	2g/	-ri-
1F\	-e	2F/	.	1a\	-e
=22-	=22-	=22-	=22-	=22-	=22-
!	!	!LO:LB:g=original	!	!	!
.	.	1c\	-son	.	.
4E\	.	.	.	4g/	.
!LO:TX:t=P:problem:kreska pseudotaktowa	!	!	!	!	!
4D/	.	.	.	4f/	.
1C/	e-	2r	.	1e/	.
.	.	1c\	ky-	.	.
=23-	=23-	=23-	=23-	=23-	=23-
1D\	.	.	.	1f/	.
.	.	2B-\	-ri-	.	.
2C/	.	4c\	-e	2e/	e-
.	.	4B-\	.	.	.
1D\	.	4A/	.	1f/	-le-
.	.	4G/	.	.	.
=24-	=24-	=24-	=24-	=24-	=24-
.	.	2F/	.	.	.
4C/	.	2G/	e-	4e/	.
!LO:TX:t=P:problem:kreska pseudotaktowa	!	!	!	!	!
4BB-/	.	.	.	4d/	-i-
1AA/	.	2A/	.	2c/	.
.	.	2c\	.	2e/	.
=25-	=25-	=25-	=25-	=25-	=25-
*lig	*	*	*	*	*
1BB-/	-lei-	2.B-\	.	2g/	.
.	.	.	.	1f/	-son
.	.	4A/	-le-	.	.
1C/	.	1G/	-i-	.	.
.	.	.	.	2e/	.
*Xlig	*	*	*	*	*
=26-	=26-	=26-	=26-	=26-	=26-
0FF/;	-ſon	0F/;;	-son.-	0f/;<	.
=27||	=27||	=27||	=27||	=27||	=27||
*M2/1	*	*M2/1	*	*M2/1	*
*met(c|)	*	*met(c|)	*	*met(c|)	*
!LO:LB:g=original	!	!LO:LB:g=original	!	!LO:LB:g=original	!
00r	.	00r	.	00r	.
=28-	=28-	=28-	=28-	=28-	=28-
=29-	=29-	=29-	=29-	=29-	=29-
!LO:TX:t=P:problem:kreska pseudotaktowa	!	!	!	!	!
00r	.	00r	.	0f/	CHri-
=30-	=30-	=30-	=30-	=30-	=30-
.	.	.	.	1a\	-ste
.	.	.	.	1b-\	e-
=31-	=31-	=31-	=31-	=31-	=31-
0F\	CHri-	00rd	.	2.a\	.
.	.	.	.	4g/	.
.	.	.	.	4a\	.
.	.	.	.	4b-\	.
.	.	.	.	2.cc\	.
=32-	=32-	=32-	=32-	=32-	=32-
1A\	.	.	.	.	.
.	.	.	.	4b-\	-lei-
.	.	.	.	1a\	.
!LO:TX:t=P:problem:kreska pseudotaktowa	!	!	!	!	!
1B-\	-ſte	.	.	.	.
.	.	.	.	2g/	son
=33-	=33-	=33-	=33-	=33-	=33-
2.A\	e-	0F/	Chris-	1a\	.
4G\	.	.	.	.	.
4F\	.	.	.	2r	.
4E\	.	.	.	.	.
1D\	-le-	.	.	2f/	.
=34-	=34-	=34-	=34-	=34-	=34-
.	.	1A\	-te	2f/	.
2C/	-i-	.	.	2e/	.
!LO:TX:t=P:problem:kreska pseudotaktowa	!	!	!	!	!
1BB-/	-ſon	1B-\	e-	4d/	.
.	.	.	.	4e/	.
.	.	.	.	4f/	.
.	.	.	.	4g/	.
=35-	=35-	=35-	=35-	=35-	=35-
*	*ij	*	*	*	*
1.F\	CHri-	2.A/	-lei-	1.a\	.
.	.	4G/	.	.	.
.	.	4A/	.	.	.
.	.	4B-\	.	.	.
4E\	.	2.c\	.	2g/	.
4D/	-ſte	.	.	.	.
=36-	=36-	=36-	=36-	=36-	=36-
!	!	!	!	!LO:LB:g=original	!
2C/	e-	.	.	1g\	.
.	.	4B-\	.	.	.
2E\	le-	2G/	.	.	.
1D\	-i-	2A/	.	1r	.
.	.	2B-\	.	.	.
=37-	=37-	=37-	=37-	=37-	=37-
!LO:TX:t=P:problem:kreska pseudotaktowa	!	!	!	!	!
1C/	-ſon	2.c\	.	2rb	.
*	*Xij	*	*	*	*
.	.	.	.	1cc\	CHris-
.	.	4B-\	.	.	.
00r	.	4A/	.	.	.
.	.	4G/	.	.	.
.	.	2F/	.	2a\	-te
=38-	=38-	=38-	=38-	=38-	=38-
.	.	2G/	.	2b-\	e-
!	!	!LO:LB:g=original	!	!	!
.	.	2c\	.	2.cc\	.
.	.	1F/	-son	.	.
.	.	.	.	4b-\	.
.	.	.	.	4a\	.
.	.	.	.	4g/	.
=39-	=39-	=39-	=39-	=39-	=39-
.	.	0r	.	2a\	.
.	.	.	.	2.b-\	.
!LO:SIC:v:t=custos “D” na końcu linijki	!	!	!	!	!
1F\	Chri-	.	.	.	.
.	.	.	.	4a\	-le-
.	.	.	.	1a\	-i-
=40-	=40-	=40-	=40-	=40-	=40-
!LO:LB:g=original	!	!	!	!	!
2D/	-ſte	1r	.	.	.
!LO:TX:t=P:problem:kreska pseudotaktowa	!	!	!	!	!
2E\	e-	.	.	2g/	.
2.F\	.	2r	.	0a\	-son
.	.	1A\	Chris-	.	.
4E\	.	.	.	.	.
=41-	=41-	=41-	=41-	=41-	=41-
4D/	.	.	.	.	.
4C/	.	.	.	.	.
2D/	.	2F/	-te	.	.
2C/	.	2G/	e-	0r	.
2AA/	-le-	1A\	.	.	.
=42-	=42-	=42-	=42-	=42-	=42-
1BB-/	-i-	.	.	.	.
.	.	2G/	.	.	.
!LO:TX:t=P:problem:kreska pseudotaktowa	!	!	!	!	!
1AA/	-ſon.	1A\	.	2r	.
*	*	*	*	*	*ij
.	.	.	.	2cc\	CHris-
=43-	=43-	=43-	=43-	=43-	=43-
1rD	.	2F/	.	2a\	-te
.	.	2G/	-lei-	2b-\	e-
2rBB	.	1A\	-son	2.cc\	.
1F\	Chri-	.	.	.	.
.	.	.	.	4b-\	.
=44-	=44-	=44-	=44-	=44-	=44-
.	.	1r	.	4a\	.
.	.	.	.	4g/	.
!LO:TX:t=P:problem:kreska pseudotaktowa	!	!	!	!	!
2E\	-ſte	.	.	2a\	.
!	!	!	!	!LO:LB:g=original	!
2E\	e-	1c\	Chris-	2g/	.
2C/	-le-	.	.	2e/	.
=45-	=45-	=45-	=45-	=45-	=45-
1D\	-i-	2A\	.	1f/	-lei-
.	.	2B-\	-te	.	.
0AA/	-ſon	2.c\	e-	0e/	-son
.	.	4B-\	.	.	.
=46-	=46-	=46-	=46-	=46-	=46-
.	.	4A/	.	.	.
.	.	4G/	.	.	.
.	.	2A/	.	.	.
*	*ij	*	*	*	*
1C/	Chri-	2G/	.	2r	.
.	.	2E/	.	2cc\	CHris-
=47-	=47-	=47-	=47-	=47-	=47-
1D\	-ſte	1F/	-lei-	2a\	-te
.	.	.	.	2b-\	e-
!	!	!LO:LB:g=original	!	!	!
1C/	e-	1G/	.	2.cc\	.
.	.	.	.	4b-\	.
=48-	=48-	=48-	=48-	=48-	=48-
!LO:SIC:v:t=custos “E” na końcu linijki	!	!	!	!	!
1F\	.	2A/	.	4a\	.
.	.	.	.	4g/	.
.	.	2F/	.	2a\	.
!LO:LB:g=original	!	!	!	!	!
2E\	.	2G/	.	2g/	.
2C/	.	2A/	.	2e/	.
=49-	=49-	=49-	=49-	=49-	=49-
0D\	-lei-	0F/	.	0f/	-lei-
=50-	=50-	=50-	=50-	=50-	=50-
0C/;	-ſon	0G/;;	-son	0e/	-son
=51||	=51||	=51||	=51||	=51||	=51||
*M2/1	*Xij	*M2/1	*	*M2/1	*Xij
*met(c|)	*	*met(c|)	*	*met(c|)	*
!	!	!	!	!LO:LB:g=original	!
2.AA/	Kÿ-	0A\	Ky-	00r	.
!LO:TX:t=P:problem:kreska pseudotaktowa	!	!	!	!	!
4BB-/	-ri-	.	.	.	.
2C/	-e	.	.	.	.
2.D/	e-	.	.	.	.
=52-	=52-	=52-	=52-	=52-	=52-
.	.	1A\	-ri-	.	.
4C/	.	.	.	.	.
!LO:TX:t=P:problem:kreska pseudotaktowa	!	!	!	!	!
2AA/	.	.	.	.	.
2BB-/	.	1G/	-e	.	.
2C/	-lei-	.	.	.	.
=53-	=53-	=53-	=53-	=53-	=53-
2D,</	-ſon	1F/	e-	0r	.
1F\	Kÿ-	.	.	.	.
.	.	1G/	-lei-	.	.
!LO:TX:t=P:problem:kreska pseudotaktowa	!	!	!	!	!
2E\	-ri-	.	.	.	.
=54-	=54-	=54-	=54-	=54-	=54-
2.F\	-e	0F/	-son	0a\	Ky-
4G\	.	.	.	.	.
2A\	.	.	.	.	.
2.D/	e-	.	.	.	.
=55-	=55-	=55-	=55-	=55-	=55-
.	.	00r	.	1a\	-ri-
!LO:SIC:v:t=custos “F” na końcu linijki	!	!	!	!	!
4E\	.	.	.	.	.
!LO:TX:t=P:problem:kreska pseudotaktowa	!	!	!	!	!
!LO:LB:g=original	!	!	!	!	!
2F\	.	.	.	.	.
2G\	.	.	.	1g\	-e
2E\	-le-	.	.	.	.
=56-	=56-	=56-	=56-	=56-	=56-
1D\	-i-	.	.	1f/	e-
!LO:TX:t=P:problem:kreska pseudotaktowa	!	!	!	!	!
1C/,<	-ſon	.	.	1g\	.
=57-	=57-	=57-	=57-	=57-	=57-
2.F\	Kÿ-	0A\	ky-	1.f/	-lei-
4E\	-ri-	.	.	.	.
2D/	-e	.	.	.	.
4C/	.	.	.	4e/	.
!LO:TX:t=P:problem:kreska pseudotaktowa	!	!	!	!	!
4BB-/	.	.	.	4d/	.
=58-	=58-	=58-	=58-	=58-	=58-
!	!	!LO:LB:g=original	!	!	!
2.AA/	e-	1A\	-ri-	4e/	.
.	.	.	.	4c/	.
.	.	.	.	1f/	.
4BB-/	.	.	.	.	.
1C/	-le-	1G/	-e	.	.
.	.	.	.	2e/	.
=59-	=59-	=59-	=59-	=59-	=59-
1D\	-i-	1F/	e-	1f/	-son
!LO:TX:t=P:problem:kreska pseudotaktowa	!	!	!	!	!
1C/	-ſon	0G/	-lei-	2r	.
*	*	*	*	*	*ij
.	.	.	.	2cc\	Ky-
=60-	=60-	=60-	=60-	=60-	=60-
1rD	.	.	.	2b-\	-ri-
.	.	.	.	2g/	-e
2r	.	1F/	-son.	1a\	e-
!LO:TX:t=P:problem:kreska pseudotaktowa	!	!	!	!	!
2F\	Kÿ-	.	.	.	.
=61-	=61-	=61-	=61-	=61-	=61-
2A\	-ri-	00r	.	1cc\	.
2A\	-e	.	.	.	.
1G\	e-	.	.	2b-\	.
.	.	.	.	2g/	.
=62-	=62-	=62-	=62-	=62-	=62-
2.F\	-lei-	.	.	2.a\	.
8E\L	.	.	.	4g/	.
8D\J	.	.	.	.	.
!LO:SIC:v:t=custos “F” na końcu linijki	!	!	!	!	!
1C/,<	-ſon.	.	.	4e/	.
.	.	.	.	4f/	.
.	.	.	.	2.g/	.
=63-	=63-	=63-	=63-	=63-	=63-
!LO:PB:g=original	!	!	!	!	!
0r	.	2r	.	.	.
.	.	.	.	4f/	.
.	.	2B-\	ky-	2d/	.
.	.	2A/	-ri-	2e/	.
.	.	2F/	-e	2f/	.
=64-	=64-	=64-	=64-	=64-	=64-
1r	.	1G/	e-	1d/	-lei-
2r	.	1A\	.	0c/	-son
2F\	Kÿ-	.	.	.	.
=65-	=65-	=65-	=65-	=65-	=65-
2E\	-ri-	2G/	.	.	.
!LO:TX:t=P:problem:kreska pseudotaktowa	!	!	!	!	!
2C/	-e	2c\	.	.	.
2.D/	e-	2B-\	.	0rg	.
.	.	2.A/	.	.	.
4C/	.	.	.	.	.
=66-	=66-	=66-	=66-	=66-	=66-
4AA/	.	.	.	.	.
4BB-/	.	4G/	.	.	.
2C/	.	2E/	.	.	.
2BB-/	.	2F/	.	1rg	.
2GG/	.	2.G/	.	.	.
=67-	=67-	=67-	=67-	=67-	=67-
*lig	*	*	*	*	*Xij
1AA/	.	.	.	1cc\	Ky-
.	.	4F/	.	.	.
.	.	1F/	.	.	.
1GG/	.	.	.	2b-\	-ri-
.	.	2E/	-lei-	2g/	-e
*Xlig	*	*	*	*	*
=68-	=68-	=68-	=68-	=68-	=68-
1D\	-lei-	2F/	-son.	1a\	e-
!	!	!LO:PB:g=original	!	!	!
.	.	2f\	ky-	.	.
!LO:TX:t=P:problem:kreska pseudotaktowa	!	!	!	!	!
1C/	-ſon	2e\	-ri-	1cc\	.
.	.	2c\	-e	.	.
=69-	=69-	=69-	=69-	=69-	=69-
*	*ij	*	*	*	*
!	!	!	!	!LO:LB:g=original	!
1G\	Kÿ-	2.d\	e-	2b-\	.
.	.	.	.	2g/	.
.	.	4c\	.	.	.
2.F\	-ri-	4A\	.	2.a\	.
.	.	4B-\	.	.	.
.	.	2.c\	.	.	.
4E\	.	.	.	4g/	.
=70-	=70-	=70-	=70-	=70-	=70-
!	!	!	!	!LO:LB:g=original	!
2C/	-e	.	.	4e/	.
.	.	4B-\	.	4f/	.
2E-X\	e-	2G/	.	2.g/	.
2D/	.	2A/	.	.	.
.	.	.	.	4f/	-lei-
2BB-/	-lei-	2B-\	-lei-	1f/	.
=71-	=71-	=71-	=71-	=71-	=71-
1C/	-ſon	1G/	-son	.	.
.	.	.	.	2e/	.
*	*Xij	*	*ij	*	*
1r	.	1d\	Ky-	0f/	-son
=72-	=72-	=72-	=72-	=72-	=72-
!LO:SIC:v:t=custos “E” na końcu linijki	!	!	!	!	!
1F\	Kÿ-	2c\	-ri-	.	.
.	.	2.d\	-e	.	.
!LO:LB:g=original	!	!	!	!	!
2Eny\	-ri-	.	.	0r	.
.	.	4c\	.	.	.
2C/	-je	1c\	e-	.	.
=73-	=73-	=73-	=73-	=73-	=73-
1D\	e-	.	.	.	.
.	.	2B-\	-lei-	.	.
!LO:TX:t=P:problem:kreska pseudotaktowa	!	!	!	!	!
1C/	-lei-	1c\	-son	2r	.
*	*	*	*Xij	*	*
.	.	.	.	2cc\	Ky-
=74-	=74-	=74-	=74-	=74-	=74-
1G\	-ſon	1re	.	2b-\	-ri-
.	.	.	.	2g/	-e
2F\	.	1f\	ky-	1a\	e-
2D/	.	.	.	.	.
=75-	=75-	=75-	=75-	=75-	=75-
1A\	Kÿ-	2e\	-ri-	1cc\	.
.	.	2c\	-e	.	.
!LO:TX:t=P:problem:kreska pseudotaktowa	!	!	!	!	!
1G\	-ri-	2.d\	e-	2b-\	.
.	.	.	.	2g/	le-
.	.	4c\	.	.	.
=76-	=76-	=76-	=76-	=76-	=76-
!	!	!LO:LB:g=original	!	!	!
1F\	-e	4A\	.	2.a\	-i-
.	.	4B-\	.	.	.
.	.	2.c\	.	.	.
.	.	.	.	4g/	.
2C/	.	.	.	4e/	.
.	.	4B-\	.	4f/	.
2E-X\	e-	2G/	.	2.g/	.
=77-	=77-	=77-	=77-	=77-	=77-
2D/	.	2A/	.	.	.
.	.	.	.	4f/	.
2BB-/	.	2B-\	.	1f/	.
1C/	-lei-	1G/	-lei-	.	.
.	.	.	.	2e/	.
=78-	=78-	=78-	=78-	=78-	=78-
0FF/	-ſon.	0F/;;	-ſon.	0f/;<	-son
==	==	==	==	==	==
*-	*-	*-	*-	*-	*-
!!!system-decoration: [(s1,s2,s3)]
!!!RDF**kern: > = above
!!!RDF**kern: < = below
!!!EED: Andrzej Borzym
!!!EST: 2021-03-24
!!!ENC: Tomasz Grochalski
!!!END: 2021-03-09
